svg/fluentui-system-icons/ic_fluent_call_inbound_48_regular.svg

<svg width="48" height="48" viewBox="0 0 48 48" fill="none" xmlns="http://www.w3.org/2000/svg">
<path d="M14.0094 3.75C9.07787 3.74999 4.37825 7.13021 4.53917 12.4856C4.67456 16.9911 5.74801 23.0192 9.41755 29.375C13.0588 35.6817 17.6796 39.8237 21.4654 42.4141C25.9585 45.4885 31.4721 43.3521 34.109 39.0372C35.2595 37.1546 35.0874 34.7491 33.6807 33.0494L31.0418 29.8608C29.7721 28.3266 27.7437 27.6429 25.8043 28.0954L22.3827 28.8938C21.6147 29.073 20.9673 28.9028 20.5842 28.5167C18.8896 26.8089 16.9503 23.8402 16.1266 21.5335C15.932 20.9887 16.1349 20.2648 16.8454 19.6727L19.1692 17.7363C20.8515 16.3344 21.4869 14.0356 20.7635 11.9687L19.1173 7.2656C18.3803 5.15993 16.393 3.75001 14.1621 3.75H14.0094ZM7.03805 12.4105C6.93172 8.87223 10.0433 6.24999 14.0094 6.25L14.1621 6.25C15.3307 6.25 16.3716 6.98853 16.7577 8.09151L18.4038 12.7946C18.7828 13.8772 18.4499 15.0814 17.5687 15.8157L15.245 17.7521C14.0113 18.7802 13.1156 20.5357 13.7722 22.3742C14.7294 25.055 16.8788 28.3317 18.8095 30.2776C19.9662 31.4433 21.5899 31.646 22.9508 31.3284L26.3724 30.53C27.3883 30.293 28.4508 30.6511 29.1159 31.4547L31.7548 34.6433C32.4807 35.5206 32.5695 36.762 31.9758 37.7336C29.8755 41.1704 25.8815 42.4066 22.8772 40.3509C19.3317 37.9249 14.9993 34.0428 11.5826 28.125C8.15704 22.1917 7.16347 16.5843 7.03805 12.4105ZM43.6338 6.13392C44.122 5.64576 44.122 4.8543 43.6338 4.36615C43.1457 3.87799 42.3542 3.87799 41.8661 4.36615L28.5 17.7323V7.25003C28.5 6.55968 27.9403 6.00003 27.25 6.00003C26.5596 6.00003 26 6.55968 26 7.25003V20.75C26 21.4404 26.5596 22 27.25 22H40.75C41.4403 22 42 21.4404 42 20.75C42 20.0597 41.4403 19.5 40.75 19.5H30.2677L43.6338 6.13392Z" fill="#212121"/>
</svg>

<svg xmlns="http://www.w3.org/2000/svg" width="48" height="48"><path d="M14.01 3.75c-4.932 0-9.632 3.38-9.47 8.736.135 4.505 1.208 10.533 4.878 16.889a39.984 39.984 0 0 0 12.047 13.04c4.494 3.074 10.007.937 12.644-3.378a5.166 5.166 0 0 0-.428-5.988l-2.64-3.188a5.25 5.25 0 0 0-5.237-1.766l-3.421.799c-.768.179-1.416.009-1.799-.377-1.694-1.708-3.634-4.677-4.457-6.983-.195-.545.008-1.27.718-1.861l2.324-1.937a5.25 5.25 0 0 0 1.595-5.767l-1.647-4.703a5.25 5.25 0 0 0-4.955-3.516h-.153Zm-6.972 8.66c-.106-3.538 3.005-6.16 6.971-6.16h.153a2.75 2.75 0 0 1 2.596 1.842l1.646 4.703a2.75 2.75 0 0 1-.835 3.02l-2.324 1.937c-1.234 1.028-2.13 2.784-1.473 4.622.957 2.681 3.107 5.958 5.037 7.904 1.157 1.165 2.78 1.368 4.142 1.05l3.421-.798a2.75 2.75 0 0 1 2.744.925l2.639 3.188c.726.878.814 2.119.22 3.09-2.1 3.437-6.094 4.674-9.098 2.618a37.484 37.484 0 0 1-11.294-12.226c-3.426-5.933-4.42-11.54-4.545-15.714Zm36.596-6.276a1.25 1.25 0 1 0-1.768-1.768L28.5 17.732V7.25a1.25 1.25 0 0 0-2.5 0v13.5c0 .69.56 1.25 1.25 1.25h13.5a1.25 1.25 0 0 0 0-2.5H30.268L43.634 6.134Z"/></svg>
